X:1
T:Title
L:1/8
Q:1/4=100
M:6/8
K:G
V:1 treble nm="Church Organ, Staff"
V:1
 E E2 E G2 | GFE D E2 | E G2 ABA | G A2- A A2 | B G2 F E2 | DFG A G2 | F E2 GFE | D E2- E E2 |] %8
w: By~Greek~Traditional~Melody * * *||||||||

